**kern
*ICvox
*D:
*M4/4
*clefG2
r;
=1
*>Letter>A
*>Label>Intro
0.84
.
=2
3.86
.
=3
6.89
.
=4
9.91
=5
12.93
=6
*>Letter>B
*>Label>Verse
*
15.96
16.73
16.93
17.12
17.31
17.51
17.9
18.09
18.28
18.67
=7
19.06
19.44
19.64
19.83
20.03
20.22
20.61
21.38
=8
22.16
22.93
23.12
23.32
23.51
23.7
24.09
24.29
24.48
24.67
25.06
=9
25.25
25.45
26.03
26.8
=10
28.35
29.12
29.32
29.51
29.7
29.9
30.48
30.67
31.06
=11
31.44
31.83
32.02
32.22
32.41
32.6
32.99
33.76
34.15
=12
34.53
34.92
35.11
35.31
35.5
35.69
36.08
36.85
=13
37.62
37.82
38.01
38.2
38.4
38.78
38.98
39.17
39.36
39.75
39.94
40.33
40.52
=14
40.71
40.91
41.49
42.26
=15
*>Letter>C
*>Label>Chorus
*
43.8
44.55
44.74
44.93
45.11
45.3
46.05
46.24
46.42
46.61
=16
46.8
47.17
47.36
47.55
47.73
47.92
48.11
48.29
48.48
48.67
49.04
49.42
=17
49.79
50.16
50.54
50.72
50.91
51.1
51.29
51.66
51.85
52.03
52.22
52.41
=18
52.78
53.16
53.53
54.28
=19
55.77
56.54
56.73
56.92
57.11
57.3
58.07
58.26
58.45
58.64
=20
58.83
59.21
59.4
59.59
59.78
59.98
60.17
60.36
60.55
60.93
61.12
61.5
=21
61.89
62.65
62.84
63.03
63.22
63.41
63.8
63.99
64.18
64.56
64.75
=22
64.94
65.71
66.09
66.47
66.72
66.98
67.23
67.49
67.74
=23
68
68.38
68.76
69.14
69.33
69.53
69.91
70.29
=24
*>Letter>B
*>Label>Solo
*
71.05
.
=25
74.07
.
=26
77.08
.
=27
80.09
=28
83.1
.
=29
86.14
.
=30
89.18
.
=31
92.22
.
=32
95.25
=33
*>Letter>C
*>Label>Chorus
*
98.29
99.04
99.23
99.42
99.6
99.79
100.54
100.73
100.92
101.11
=34
101.3
101.67
101.86
102.05
102.23
102.42
102.61
102.8
102.99
103.17
103.55
103.93
=35
104.3
104.68
105.05
105.24
105.43
105.62
105.8
106.18
106.37
106.56
106.74
106.93
=36
107.31
107.68
108.06
108.81
=37
110.31
111.07
111.26
111.45
111.64
111.83
112.59
112.78
112.97
113.16
=38
113.36
113.74
113.93
114.12
114.31
114.5
114.69
114.88
115.07
115.45
115.64
116.02
=39
116.4
117.16
117.35
117.54
117.73
117.92
118.3
118.49
118.68
119.06
119.25
=40
119.44
120.2
120.58
120.96
121.22
121.47
121.72
121.98
122.23
=41
122.48
122.86
123.24
123.63
123.82
124.01
124.39
124.77
=42
*>Letter>B
*>Label>Verse
*
125.53
126.28
126.46
126.65
126.84
127.02
127.59
127.77
128.15
=43
128.52
128.9
129.08
129.27
129.46
129.65
130.02
130.77
=44
131.52
132.27
132.45
132.64
132.83
133.02
133.39
133.58
133.76
133.95
134.33
=45
134.51
134.7
135.26
136.01
=46
137.51
138.27
138.46
138.65
138.84
139.03
139.6
139.79
140.17
=47
140.56
140.94
141.13
141.32
141.51
141.7
142.08
142.84
=48
143.6
143.98
144.17
144.36
144.55
144.74
145.12
145.89
=49
146.65
146.84
147.03
147.22
147.41
147.79
147.98
148.17
148.36
148.74
148.93
149.31
149.5
=50
149.69
149.89
150.46
151.22
=51
*>Letter>C
*>Label>Solo
*
152.74
153.48
154.21
154.95
=52
155.68
156.42
156.79
157.16
157.52
157.89
158.26
=53
158.63
158.81
159.36
160.1
160.83
161.02
161.39
=54
161.57
162.31
163.04
=55
4r
4a
4r
4a
=56
4r
4b
12g
12f#
12e
8d
8e
=57
8f#
8g
8b
8r
8r
[8e
8e]
16d
16e
=58
8d
[4.dd
12dd]
12cc
12a
12g
12f
12g
=59
8a
8f#
8d
8r
2r
=60
1r
r;
=61
*>Letter>B
*>Label>Solo
*
183.39
.
=62
186.45
.
=63
189.51
.
=64
192.57
=65
195.63
.
=66
198.67
.
=67
201.71
.
=68
204.75
.
=69
207.8
=70
*>Letter>C
*>Label>Fadeout
*
210.84
.
=71
213.88
=72
216.92
=73
219.96
=74
223.01
.
=75
223.92
=76
224.83
=77
225.74
.
=78
226.66
.
=79
227.57
r;
r;
*-
!!!BillboardChartDate: 1977/03/05
!!!BillboardPeak: 10
!!!BillboardWeeksOnChart: 13
!!!COC: Paul McCartney
!!!ENC: Nathaniel Condit-Schultz
!!!EST: Awating manual error checking and editing.
!!!OTL: Maybe I'm Amazed
!!!RDF**chordsym: original McGill chord annotation + (implied pitch class set, with bass pitch in first position)
!!!RDF**harmony: **recip + pitch class of root + harmonic quality
!!!RDF**leadinstrument: original McGill primary instrumentation annotation
!!!RDF**phrase: newline = linebreak in original McGill transcription
!!!RDF**timestamp: McGill audio timestamp in seconds
!!!RDT: 2017/01/12/
!!!SampleActualRank: 20
!!!SampleID#: 0206
!!!SampleTargetRank: 20
